X:197
T:Rural Felicity
M:6/8
L:1/8
B:Thompson's Compleat Collection of 200 Favourite Country Dances, vol. 3 (London, 1773)
Z:Transcribed and edited by Flynn Titford-Mock, 2007
Z:abc's:AK/Fiddler's Companion
K:D
A | AFG Aaf | {f}ede fdB | AFA B/c/dF | EEE E2A | AFG Aaf | ede fdB | AFA faf | ddd d2 :|
|: a | afa afa | bgb bgb | afa agf | eee e3 | a3 f3 | ede fdB | AFA faf | ddd d2 :|

